Yaru++/apps/16/rocketchat-desktop.svg

<svg height="16" width="16" xmlns="http://www.w3.org/2000/svg">
  <path d="m2.332311.42859147c-1.39114.00847-2.331884.56322341-2.332311.56347841.000673.0004553 2.030974 1.72482722 1.700754 3.23618532-.908578.9316943-1.401089 2.0551772-1.401089 3.2247486 0 1.1920214.492352 2.3155408 1.401089 3.2470712.330275 1.511777-1.700754 3.236326-1.700754 3.236326s2.184419 1.288492 4.818638-.03096c.493018-.273863.958992-.620621 1.357143-1.005583.641706.116052 1.302959.174666 1.974052.174666 2.009123 0 3.913674-.526751 5.362862-1.483536.750466-.495727 1.346959-1.0837 1.77274-1.7484648.474172-.7402056.714565-1.536735.714565-2.36691 0-.8531167-.240393-1.6492774-.714565-2.3896475-.425781-.6644331-1.022274-1.252597-1.77274-1.7483245-1.449188-.956785-3.353899-1.4838179-5.362862-1.4838179-.671093 0-1.332506.058591-1.974052.1748065-.397991-.3851252-.864125-.7315785-1.357143-1.0054412-.905378-.45355453-1.757635-.59903163-2.486327-.59458803zm5.847517 2.90150563c3.524693 0 6.381974 1.8514374 6.381974 4.1353223 0 2.2838894-2.857281 4.1353266-6.381974 4.1353266-.868695 0-1.696896-.112451-2.451731-.316127l-.551897.533061c-.299857.289661-.651236.551814-1.017578.758372-.485584.238851-.965189.36914-1.439593.4089.02676-.04873.05153-.09809.07799-.146902.552959-1.020238.702027-1.937081.447405-2.750556-.90405-.7136083-1.446708-1.6267725-1.446708-2.6220746 0-2.2838849 2.857421-4.1353223 6.382116-4.1353223zm-3.053293 3.1840143c-.519352 0-.94029.4197314-.94029.9373581 0 .5176266.420938.9372214.94029.9372214.519351 0 .940429-.4195948.940429-.9372214 0-.5176267-.421078-.9373581-.940429-.9373581zm3.027622 0c-.51935 0-.94043.4197314-.94043.9373581 0 .5176266.42108.9372214.94043.9372214.519352 0 .94029-.4195948.94029-.9372214 0-.5176267-.420938-.9373581-.94029-.9373581zm3.027484 0c-.519351 0-.94043.4197314-.94043.9373581 0 .5176266.421079.9372214.94043.9372214s.94029-.4195948.94029-.9372214c0-.5176267-.420939-.9373581-.94029-.9373581z" fill="#808080" stroke-width=".03252"/>
</svg>

<?xml version="1.0" encoding="UTF-8" standalone="no"?>
<svg
   xmlns:osb="http://www.openswatchbook.org/uri/2009/osb"
   xmlns:dc="http://purl.org/dc/elements/1.1/"
   xmlns:cc="http://creativecommons.org/ns#"
   xmlns:rdf="http://www.w3.org/1999/02/22-rdf-syntax-ns#"
   xmlns:svg="http://www.w3.org/2000/svg"
   xmlns="http://www.w3.org/2000/svg"
   xmlns:sodipodi="http://sodipodi.sourceforge.net/DTD/sodipodi-0.dtd"
   xmlns:inkscape="http://www.inkscape.org/namespaces/inkscape"
   height="16"
   id="svg7384"
   version="1.1"
   width="16"
   sodipodi:docname="rocketchat-desktop-symbolic.svg"
   inkscape:version="0.92.4 (5da689c313, 2019-01-14)">
  <sodipodi:namedview
     pagecolor="#ffffff"
     bordercolor="#666666"
     borderopacity="1"
     objecttolerance="10"
     gridtolerance="10"
     guidetolerance="10"
     inkscape:pageopacity="0"
     inkscape:pageshadow="2"
     inkscape:window-width="1920"
     inkscape:window-height="1016"
     id="namedview7367"
     showgrid="false"
     inkscape:zoom="52.4375"
     inkscape:cx="8"
     inkscape:cy="8"
     inkscape:window-x="0"
     inkscape:window-y="27"
     inkscape:window-maximized="1"
     inkscape:current-layer="svg7384">
    <inkscape:grid
       type="xygrid"
       id="grid7912" />
  </sodipodi:namedview>
  <metadata
     id="metadata20854">
    <rdf:RDF>
      <cc:Work
         rdf:about="">
        <dc:title></dc:title>
        <dc:format>image/svg+xml</dc:format>
        <dc:type
           rdf:resource="http://purl.org/dc/dcmitype/StillImage" />
      </cc:Work>
    </rdf:RDF>
  </metadata>
  <defs
     id="defs7386">
    <linearGradient
       id="linearGradient5606"
       osb:paint="solid">
      <stop
         id="stop5608"
         offset="0"
         style="stop-color:#000000;stop-opacity:1;" />
    </linearGradient>
    <linearGradient
       id="linearGradient4526"
       osb:paint="solid">
      <stop
         id="stop4528"
         offset="0"
         style="stop-color:#ffffff;stop-opacity:1;" />
    </linearGradient>
    <linearGradient
       id="linearGradient3600-4"
       osb:paint="gradient">
      <stop
         id="stop3602-7"
         offset="0"
         style="stop-color:#f4f4f4;stop-opacity:1" />
      <stop
         id="stop3604-6"
         offset="1"
         style="stop-color:#dbdbdb;stop-opacity:1" />
    </linearGradient>
  </defs>
  <g
     id="layer9"
     label="status"
     style="display:inline"
     transform="translate(-733.00024,207)" />
  <g
     id="layer2"
     style="display:inline"
     transform="translate(-492.00004,-160)" />
  <g
     id="layer4"
     style="display:inline"
     transform="translate(-492.00004,-160)" />
  <g
     id="g1812"
     style="display:inline"
     transform="translate(-492.00004,-160)" />
  <g
     id="g6217"
     style="display:inline"
     transform="translate(-492.00004,-160)" />
  <g
     id="layer3"
     style="display:inline"
     transform="translate(-492.00004,-160)" />
  <g
     id="layer1"
     style="display:inline"
     transform="translate(-492.00004,-160)" />
  <path
     style="fill:#808080;fill-opacity:1;fill-rule:nonzero;stroke-width:0.03252032"
     d="M 2.332311,0.42859147 C 0.941171,0.43706147 4.27e-4,0.99181488 0,0.99206988 6.73e-4,0.99252518 2.030974,2.7168971 1.700754,4.2282552 0.792176,5.1599495 0.299665,6.2834324 0.299665,7.4530038 c 0,1.1920214 0.492352,2.3155408 1.401089,3.2470712 C 2.031029,12.211852 0,13.936401 0,13.936401 c 0,0 2.184419,1.288492 4.818638,-0.03096 0.493018,-0.273863 0.958992,-0.620621 1.357143,-1.005583 0.641706,0.116052 1.302959,0.174666 1.974052,0.174666 2.009123,0 3.913674,-0.526751 5.362862,-1.483536 0.750466,-0.495727 1.346959,-1.0837 1.77274,-1.7484648 C 15.759607,9.1023176 16,8.3057882 16,7.4756132 16,6.6224965 15.759607,5.8263358 15.285435,5.0859657 14.859654,4.4215326 14.263161,3.8333687 13.512695,3.3376412 12.063507,2.3808562 10.158796,1.8538233 8.149833,1.8538233 c -0.671093,0 -1.332506,0.058591 -1.974052,0.1748065 C 5.77779,1.6435046 5.311656,1.2970513 4.818638,1.0231886 3.91326,0.56963407 3.061003,0.42415697 2.332311,0.42860057 Z M 8.179828,3.3300971 c 3.524693,0 6.381974,1.8514374 6.381974,4.1353223 0,2.2838894 -2.857281,4.1353266 -6.381974,4.1353266 -0.868695,0 -1.696896,-0.112451 -2.451731,-0.316127 L 5.1762,11.81768 c -0.299857,0.289661 -0.651236,0.551814 -1.017578,0.758372 -0.485584,0.238851 -0.965189,0.36914 -1.439593,0.4089 0.02676,-0.04873 0.05153,-0.09809 0.07799,-0.146902 C 3.349978,11.817812 3.499046,10.900969 3.244424,10.087494 2.340374,9.3738857 1.797716,8.4607215 1.797716,7.4654194 c 0,-2.2838849 2.857421,-4.1353223 6.382116,-4.1353223 z M 5.126535,6.5141114 c -0.519352,0 -0.94029,0.4197314 -0.94029,0.9373581 0,0.5176266 0.420938,0.9372214 0.94029,0.9372214 0.519351,0 0.940429,-0.4195948 0.940429,-0.9372214 0,-0.5176267 -0.421078,-0.9373581 -0.940429,-0.9373581 z m 3.027622,0 c -0.51935,0 -0.94043,0.4197314 -0.94043,0.9373581 0,0.5176266 0.42108,0.9372214 0.94043,0.9372214 0.519352,0 0.94029,-0.4195948 0.94029,-0.9372214 0,-0.5176267 -0.420938,-0.9373581 -0.94029,-0.9373581 z m 3.027484,0 c -0.519351,0 -0.94043,0.4197314 -0.94043,0.9373581 0,0.5176266 0.421079,0.9372214 0.94043,0.9372214 0.519351,0 0.94029,-0.4195948 0.94029,-0.9372214 0,-0.5176267 -0.420939,-0.9373581 -0.94029,-0.9373581 z"
     id="path2"
     inkscape:connector-curvature="0" />
</svg>
